Komodo/status/24/weather-snow.svg

<?xml version="1.0" encoding="UTF-8" standalone="no"?>
<!-- Created with Inkscape (http://www.inkscape.org/) -->
<svg
   xmlns:svg="http://www.w3.org/2000/svg"
   xmlns="http://www.w3.org/2000/svg"
   version="1.0"
   width="24"
   height="24"
   id="svg3187">
  <defs
     id="defs3189" />
  <path
     d="M 13.024667,4.5001422 C 11.877646,4.4891223 10.825727,5.1202577 10.245013,5.9613093 C 9.2208996,5.3481864 7.7165661,5.8835596 7.3343476,6.8822536 C 7.0219782,7.3539052 7.5723367,7.9758142 6.8238365,8.1619185 C 5.5425712,8.9854495 5.1195154,10.633303 5.8733701,11.857349 C 6.477697,12.926543 7.8486775,13.580927 9.1997263,13.491938 C 11.246391,13.486315 13.293696,13.50333 15.33995,13.483174 C 17.036583,13.399807 18.489962,12.061095 18.497328,10.571846 C 18.554072,9.3887875 17.672934,8.2608835 16.44578,7.797135 C 16.482745,6.2830874 15.22979,4.7341021 13.460978,4.5268581 C 13.316493,4.5090195 13.170577,4.5001347 13.024667,4.5001422 z M 8.4999189,12.500001 C 8.4999189,13.60457 9.3953494,14.5 10.499919,14.5 C 11.604488,14.5 12.499919,13.60457 12.499919,12.500001 C 12.499919,11.395431 11.604488,10.5 10.499919,10.5 C 9.3953494,10.5 8.4999189,11.395431 8.4999189,12.500001 L 8.4999189,12.500001 z M 11.499919,15.500001 C 11.499919,16.60457 12.395349,17.5 13.499918,17.5 C 14.604488,17.5 15.499918,16.60457 15.499918,15.500001 C 15.499918,14.395431 14.604488,13.500001 13.499918,13.500001 C 12.395349,13.500001 11.499919,14.395431 11.499919,15.500001 L 11.499919,15.500001 z M 7.4999189,17.500001 C 7.4999189,18.60457 8.3953494,19.5 9.4999188,19.5 C 10.604488,19.5 11.499919,18.60457 11.499919,17.500001 C 11.499919,16.395431 10.604488,15.5 9.4999188,15.5 C 8.3953494,15.5 7.4999189,16.395431 7.4999189,17.500001 L 7.4999189,17.500001 z"
     id="path2395"
     style="opacity:0.6;fill:none;fill-opacity:1;fill-rule:nonzero;stroke:#3a3935;stroke-width:0.99999982;stroke-linecap:round;stroke-linejoin:miter;marker:none;marker-start:none;marker-mid:none;marker-end:none;stroke-miterlimit:4;stroke-dasharray:none;stroke-dashoffset:0;stroke-opacity:1;visibility:visible;display:inline;overflow:visible;enable-background:accumulate" />
  <path
     d="M 12.999919,5.0000002 C 11.873615,5.0000002 10.919133,5.5937618 10.406169,6.4687502 C 10.117322,6.2628041 9.748469,6.1562502 9.343669,6.1562502 C 8.4236689,6.1562501 7.6561691,6.7739288 7.656169,7.5625002 C 7.6561691,7.7396009 7.7123421,7.9059554 7.781169,8.0625002 C 6.7348303,8.4632321 5.999919,9.3883762 5.999919,10.4375 C 5.999919,11.564587 6.8582779,12.494777 8.031169,12.84375 C 8.0153126,12.72996 7.999919,12.618157 7.999919,12.5 C 7.999919,11.119288 9.1192072,10 10.499919,10 C 11.880631,10 12.999919,11.119288 12.999919,12.5 C 12.999919,12.672589 12.970721,12.837256 12.937419,13 L 14.999919,13 C 16.661919,13 17.999919,11.862071 17.999919,10.4375 C 17.999919,9.3091162 17.143683,8.3479802 15.968669,8.0000002 C 15.971279,7.9511854 15.999919,7.8931799 15.999919,7.8437502 C 15.999919,6.2666073 14.655919,5.0000002 12.999919,5.0000002 z M 11.99992,15.5 C 11.99992,16.328427 12.671493,17 13.499919,17 C 14.328348,17 14.99992,16.328427 14.99992,15.5 C 14.99992,14.671573 14.328348,14 13.499919,14 C 12.671493,14 11.99992,14.671573 11.99992,15.5 L 11.99992,15.5 z M 8.999919,12.5 C 8.999919,13.328427 9.6714919,14 10.499919,14 C 11.328346,14 11.999919,13.328427 11.999919,12.5 C 11.999919,11.671573 11.328346,11 10.499919,11 C 9.6714919,11 8.999919,11.671573 8.999919,12.5 L 8.999919,12.5 z M 7.999919,17.5 C 7.999919,18.328427 8.6714918,19 9.499919,19 C 10.328346,19 10.999919,18.328427 10.999919,17.5 C 10.999919,16.671573 10.328346,16 9.499919,16 C 8.6714918,16 7.999919,16.671573 7.999919,17.5 L 7.999919,17.5 z"
     id="path2397"
     style="fill:#eae3d1;fill-opacity:1;fill-rule:evenodd;stroke:none;stroke-width:4;stroke-linecap:butt;stroke-linejoin:miter;marker:none;marker-start:none;marker-mid:none;marker-end:none;stroke-miterlimit:4;stroke-dasharray:none;stroke-dashoffset:0;stroke-opacity:1;visibility:visible;display:inline;overflow:visible;enable-background:accumulate" />
</svg>

<?xml version="1.0" encoding="UTF-8" standalone="no"?>
<!-- Created with Inkscape (http://www.inkscape.org/) -->
<svg id="svg3187" xmlns="http://www.w3.org/2000/svg" height="24" width="24" version="1.0">
 <path id="path2395" style="opacity:.6;stroke:#3a3935;stroke-linecap:round;fill:none" d="m13.025 4.5001c-1.147-0.011-2.199 0.6202-2.78 1.4612-1.0241-0.6131-2.5284-0.0777-2.9107 0.921-0.3123 0.4716 0.238 1.0935-0.5105 1.2796-1.2812 0.8235-1.7043 2.4711-0.9504 3.6951 0.6043 1.07 1.9753 1.724 3.3263 1.635 2.0463-0.006 4.0943 0.011 6.1403-0.009 1.697-0.083 3.15-1.422 3.157-2.911 0.057-1.1832-0.824-2.3111-2.051-2.7749 0.037-1.514-1.216-3.063-2.985-3.2702-0.145-0.0179-0.29-0.0268-0.436-0.0268zm-4.5251 7.9999c0 1.105 0.8954 2 2.0001 2 1.104 0 2-0.895 2-2s-0.896-2-2-2c-1.1047 0-2.0001 0.895-2.0001 2zm3.0001 3c0 1.105 0.895 2 2 2 1.104 0 2-0.895 2-2s-0.896-2-2-2c-1.105 0-2 0.895-2 2zm-4.0001 2c0 1.105 0.8954 2 2 2 1.1041 0 2.0001-0.895 2.0001-2s-0.896-2-2.0001-2c-1.1046 0-2 0.895-2 2z"/>
 <path id="path2397" style="fill-rule:evenodd;fill:#eae3d1" d="m13 5c-1.126 0-2.081 0.5938-2.594 1.4688-0.289-0.206-0.6575-0.3125-1.0623-0.3125-0.92 0-1.6875 0.6176-1.6875 1.4062 0 0.1771 0.0561 0.3435 0.125 0.5-1.0464 0.4007-1.7813 1.3259-1.7813 2.3755 0 1.127 0.8584 2.057 2.0313 2.406-0.0159-0.114-0.0313-0.226-0.0313-0.344 0-1.381 1.1193-2.5 2.5001-2.5 1.381 0 2.5 1.119 2.5 2.5 0 0.173-0.029 0.337-0.063 0.5h2.063c1.662 0 3-1.138 3-2.562 0-1.1289-0.856-2.09-2.031-2.438 0.002-0.0488 0.031-0.1068 0.031-0.1562 0-1.5772-1.344-2.8438-3-2.8438zm-1 10.5c0 0.828 0.671 1.5 1.5 1.5 0.828 0 1.5-0.672 1.5-1.5s-0.672-1.5-1.5-1.5c-0.829 0-1.5 0.672-1.5 1.5zm-3.0001-3c0 0.828 0.6716 1.5 1.5001 1.5 0.828 0 1.5-0.672 1.5-1.5s-0.672-1.5-1.5-1.5c-0.8285 0-1.5001 0.672-1.5001 1.5zm-1 5c0 0.828 0.6716 1.5 1.5 1.5 0.8281 0 1.5001-0.672 1.5001-1.5s-0.672-1.5-1.5001-1.5c-0.8284 0-1.5 0.672-1.5 1.5z"/>
</svg>
